!!!!SEGMENT: pl-wn--mus-iii-105-719-1--003_zelenski-wladyslaw--25-preludyi-op-38-3-andantino.krn
!!!cenid: 18xx:3736
!!!COM: Żeleński, Władysław
!!!COM-rismID: pe41024455
!!!CDT: 1837/07/06-1921/01/23
!!!CNT: Polish
!!!GTL: 25 preludyi op. 38
!!!OTL: 3. Andantino
!!!OMV: 003
!!!PDT: 1881
!!!AGN:
!!!SMS-siglum: PL-Wn
!!!SMS-shelfmark: Mus.III.105.719/1
!!!SMS-shelfwork: 001-003 G
!!!NIFC-rismSourceID:
!!!NIFC-rismChildID:
!!!NIFC-islandoraID: none
!!!URL-pdf-islandora:
!!!URL-scan: https://polona.pl/item/25-preludyi-2-3-i-4-glosowych-na-organ-lub-fisharmonike-do-uzytku-organistow-i,ODE1NjEwMzc/2 @EN{Scan on Polona} @PL{Skany w portalu Polona}
!!!ONB-nifc:
!!!SMS-variant:
!!!SMS-altvar:
!!!AIN: 1 organ
!!!key:
**kern	**fing	**kern	**fing	**dynam
*part1	*part1	*part1	*part1	*part1
*staff2	*staff2	*staff1	*staff1	*
*Iorgan	*	*Iempty	*	*
*I"Organo	*	*	*	*
*clefF4	*	*clefG2	*	*
*k[f#]	*	*k[f#]	*	*
*G:	*	*G:	*	*
*M12/8	*	*M12/8	*	*
=1	=1	=1	=1	=1
*	*below	*	*	*
!	!	!LO:TX:i:b:t=dolce	!	!
4.D\	5	1.r	.	p
[4.G\	2	.	.	.
8G\L]	.	.	.	.
(8D\	5	.	.	.
8A\J	1	.	.	.
8B\L	2	.	.	.
8G\	4	.	.	.
8c\J	1	.	.	.
=2	=2	=2	=2	=2
8d\L	2	(4.d/	.	.
8A\	5	.	.	.
8c\J	1	.	.	.
!	!	!	!	!LO:HP:b=2
8B\L	.	[4.g/	.	<
8A\	.	.	.	.
8G\J	.	.	.	.
8c\L	.	(8g/L])	.	.
8B\	.	8d/	1	.
8A\J	.	8a/J	3	.
4G\	1	8b/L	4	.
.	.	8g/	1	.
8E\	3	8cc/J	3	[[
=3	=3	=3	=3	=3
4.D\	.	8dd\L	4	.
.	.	8a\	1	.
.	.	8cc\J	5	.
!	!	!	!	!LO:HP:b=2
4.D#X\	.	8b/L	3	>
.	.	8a/	.	.
.	.	8g/J	.	.
[4.E\	.	8cc/L	5	.
.	.	8b/	4	.
.	.	8a/J	3	.
8E/L]	.	4g/	2	.
8BB/	5	.	.	]
8C#X/J)	4	8e/)	1	.
=4	=4	=4	=4	=4
!	!	!	!	!LO:HP:b:t=cresc. poco a poco
(8D\L	3	(4.d/	.	<
8A\	1	.	.	.
8c\J	2	.	.	.
8B\L	1	4.d#X/	.	.
8F#\	.	.	.	.
8A\J	.	.	.	.
8G\L	.	[4.e/	.	.
8E\	.	.	.	.
8F#\J	.	.	.	.
4.G\	.	8e/L]	.	.
.	.	8B/	.	.
.	.	8c#X/J	.	.
=5	=5	=5	=5	=5
4.F#\)	.	8d/L	1	.
.	.	8a/	3	.
.	.	8cc/J	5	.
!LO:N:vis=2	!	!	!	!
((2.d\	1	8b/L	4	.
.	.	8f#/	2	.
.	.	8a/J	4	.
.	.	8g/L	.	.
.	.	8e/	.	.
.	.	8f#/J	.	.
8d\L)	.	4.g/	.	.
8c#X\	2	.	.	.
8B\J	1	.	.	.
!!LO:LB:g=original
=6	=6	=6	=6	=6
8A#X\L	.	4.f#/)	.	.
8G#X\	.	.	.	.
8F#X\J	.	.	.	.
8B\L	.	([2.dd\	5	.
8F#\	.	.	.	.
8An\J	.	.	.	.
*	*above	*	*	*
8Gn\L	1	.	.	.
8D#X\	.	.	.	.
8F#\J	.	.	.	.
[4.E\	.	8dd\L]	.	.
.	.	8cc#X\	3	.
.	.	8b\J	1	.
=7	=7	=7	=7	=7
!	!	!	!	!LO:HP:b=2:t=dim.
4.E\]	.	8a#X/L	4	>
.	.	8g#X/	3	.
.	.	8f#/J	2	.
*	*below	*	*	*
!LO:N:vis=2	!	!	!	!
2.D\	1	8b/L	5	.
.	.	8f#/	2	.
.	.	8an/J	5	.
.	.	8gn/L	4	.
.	.	8d#X/	2	.
.	.	8f#/J	4	.
8C#X/L	3	[4.e/	3	.
8BB/	4	.	.	.
8AA/J	5	.	.	.
=8	=8	=8	=8	=8
8A\L	1	4.e/]	.	.
8B\	2	.	.	.
8G\J	1	.	.	.
!	!	!LO:N:vis=2	!	!
4F#\	3	2.d/	.	.
8E\	4	.	.	.
8D\)	5	.	.	.
8r	.	.	.	.
8r	.	.	.	.
4r	.	8c#X/L	3	.
.	.	8B/	2	.
8r	.	8A/J	1	.
=9	=9	=9	=9	=9
!	!	!	!	!LO:DY:b=2
(4.AA/	.	8a/L	4	pp
.	.	8b/	5	.
.	.	8g/J	4	.
[4.D\	.	4f#/	.	.
.	.	8e/	.	.
!	!	!	!	!LO:HP:b=2
(8D/L])	.	8d/)	.	<
8AA/	.	8r	.	.
8E/J	.	8r	.	.
8F#\L	.	4r	.	.
8D\	.	.	.	.
8G\J	.	8r	.	[[
=10	=10	=10	=10	=10
!	!	!	!	!LO:HP:b=2:t=cresc. un poco
[4.F#\	.	(4.A/	.	<
8F#\L]	.	[4.d/	.	.
8A\	.	.	.	.
8B\J	.	.	.	.
[4.cn\	.	8d/L]	.	.
.	.	(8A/)	.	.
.	.	8e/J	.	.
4c\]	.	8f#/L	4	.
.	.	8d/	1	.
8E\	.	8g/J	3	.
!!LO:LB:g=original
=11	=11	=11	=11	=11
8A\L	1	[4.f#/	2	.
8F#\	2	.	.	.
8E\J	3	.	.	.
[4.D#X\	.	8f#/L]	.	.
.	.	8a/	.	.
.	.	8b/J	.	.
8D#\L]	.	[4.cc\	.	.
8E\	.	.	.	.
8F#\J	.	.	.	.
8E\L	3	4cc\]	.	.
8F#\	.	.	.	.
8G\J	.	8e/	.	.
=12	=12	=12	=12	=12
[4.F#\	4	8a/L	5	.
.	.	8f#/	3	.
.	.	8e/J	1	.
8F#\L]	.	[4.d#X/	.	.
8G\	.	.	.	.
8A\J	.	.	.	.
4B\	.	8d#/L]	1	.
.	.	8e/	.	.
8A\	.	8f#/J	.	.
8G\L	.	8e/L	.	.
8F#\	.	8f#/	.	.
8E\J	1	8g/J	.	.
=13	=13	=13	=13	=13
8D\L	3	[4.f#/	.	<
8E\	2	.	.	.
8C\J	4	.	.	.
8BB\L	.	8f#/L]	.	.
8B\	.	8g/	.	[
8A\J	.	8a/J	.	.
8G\)	.	4b/	.	.
8r	.	.	.	.
8r	.	8a/	.	.
4r	.	8g/L	.	>
.	.	8f#/	.	.
8r	.	8e/J	.	]
=14	=14	=14	=14	=14
!	!	!	!	!LO:DY:b=2
((4.D\	.	8d/L	3	p
.	.	8e/	4	.
.	.	8c/J	2	.
[4.G\)	.	8B/L	.	.
.	.	8b/	.	.
.	.	8a/J	.	.
8G\L])	.	8g/)	.	.
(8D\	.	8r	.	.
8A\J	.	8r	.	.
8B\L	.	4r	.	.
8G\	.	.	.	.
8c\J	.	8r	.	.
!!LO:LB:g=original
=15	=15	=15	=15	=15
!	!	!	!	!LO:HP:b=2
8d\L	.	((4.d/	.	<
8A\	.	.	.	.
8c\J	.	.	.	.
8B\L	.	4.g/)	.	.
8A\	.	.	.	.
8G\J	.	.	.	.
8c\L	.	8g/L)	.	.
8B\	.	(8d/	.	.
8A\J	.	8a/J	.	.
4.G\)	.	8b/L	.	.
.	.	8g/	.	.
.	.	8cc/J	.	.
=16	=16	=16	=16	=16
(4F#\	2	8dd\L	.	.
.	.	8a\	.	.
8D\	4	8cc\J	.	.
4.Fn\	1	8b/L	.	.
.	.	8a/	.	.
.	.	8g/J	.	.
[4.E\	2-1	8cc/L	5	.
.	.	8b/	3	.
.	.	8a/J	2	.
8E/L]	.	4.g/	1	.
8AA/	.	.	.	.
8E-X/J	2	.	.	.
=17	=17	=17	=17	=17
!	!	!	!	!LO:HP:b:t=dim. sempre
8D/L	1	4f#/	4	>
8AA/	4	.	.	.
8C/J	2	8d/	.	.
8BB/L	.	4.fn/	3-4	.
8AA/	.	.	.	.
8GG/J	.	.	.	.
4.G\	.	[4.e/	3	.
4C/	3	8e/L]	.	.
.	.	8A/	.	.
8C#X/	2	8e-X/J	4	.
=18	=18	=18	=18	=18
!	!	!LO:TX:i:b:t=poco rall.	!	!
8D/L	.	8d/L	3	.
8Cn/	.	8A/	.	.
8AA/J	.	8c/J	4	.
[4.GG/	.	8B/L	.	.
.	.	8A/	.	.
.	.	8G/J	.	.
8GG/L]	.	2.g/)	.	.
8BB/	.	.	.	.
8D/J	.	.	.	.
4.G\)	.	.	.	.
==	==	==	==	==
*-	*-	*-	*-	*-
!!!system-decoration: {(p1)}
!!!ENC: Arkadiusz Malec
!!!END: 2022-03-15
!!!ENC: Kamil Watkowski
!!!END: 2022-09-22
!!!RDF**kern: > = above
!!!RDF**kern: < = below
!!!YEC: Copyright 2022 Narodowy Instytut Fryderyka Chopina (https://polishscores.org)
!!!YEM: License CC-BY-4.0 (https://creativecommons.org/licenses/by/4.0)
!!!YEC: Copyright 2022 Narodowy Instytut Fryderyka Chopina (https://polishscores.org)
